!! 00000] TT[WS
!!!OTL: Fangyang ge
!!!ARE: Asia, China, Shanxi Huguan
!! Ethnic Group: Han
!! WII, 42 (1)
!!!SCT: J0456
!!!YEM: Copyright 1995, estate of Helmut Schaffrath.
**kern
*ICvox
*Ivox
*M2/4
*k[b-]
*F:
{8dd
8ff
8cc
8a
=1
8dd
8ff
8cc
8a
=2
2dd}
=3
{4cc
8cc
8dd
=4
8dd
8cc
8a
8f
=5
2g}
=6
{8a
8cc
8dd
8ff
=7
8a
8g
8f
8d
=8
8a
16a
16cc
8g
8f
=9
2d}
==
!!!AGN: Xiaodiao. Laodong, Fangyang
!!!ONB: ESAC (Essen Associative Code) Database: CHINA
!!!AMT: simple duple
!!!AIN: vox
!!!EED: Helmut Schaffrath
!!!EEV: 1.0
*-
